X: 90
T: la Gigue Anglaise
%R: reel
B: Stewart "A Select Collection of Airs, Jigs, Marches and Reels", ca.1784, p.44 #90
F: http://imslp.org/wiki/A_Select_Collection_of_Airs,_Jigs,_Marches_and_Reels_%28Various%29
Z: 2017 John Chambers <jc:trillian.mit.edu>
M: 2/4	% The book has just "2".
L: 1/8
K: D
|:\
d2 AB | GAFD | d2cd | gfe2 |\
d2AB | GAFD | d2cA | B^G A2 ::\
defg |afg2 | fef2 | edcA |
defg | afg2 | fedc | d2d2 ::\
f2fd | g2ge | f2fd | e2e2 |\
f2fd | g2gb | agfe | d2d2 :|
